src/lib/packages/icons/src/assets/line/camera-slash.svg

<svg width="24" height="24" viewBox="0 0 24 24" fill="none" xmlns="http://www.w3.org/2000/svg">
<path d="M21.3411 6.99512C21.6121 7.53812 21.75 8.213 21.75 9V17C21.75 19.418 20.418 20.75 18 20.75H8C7.586 20.75 7.25 20.414 7.25 20C7.25 19.586 7.586 19.25 8 19.25H18C19.577 19.25 20.25 18.577 20.25 17V9C20.25 8.448 20.166 7.99904 19.999 7.66504C19.813 7.29404 19.964 6.84394 20.335 6.65894C20.705 6.47394 21.1561 6.62512 21.3411 6.99512ZM14.25 13C14.25 14.241 13.24 15.25 12 15.25C11.586 15.25 11.25 15.586 11.25 16C11.25 16.414 11.586 16.75 12 16.75C14.067 16.75 15.75 15.068 15.75 13C15.75 12.586 15.414 12.25 15 12.25C14.586 12.25 14.25 12.586 14.25 13ZM3.53003 21.53C3.38403 21.676 3.192 21.75 3 21.75C2.808 21.75 2.61597 21.677 2.46997 21.53C2.17697 21.237 2.17697 20.762 2.46997 20.469L3.19507 19.7439C2.67607 19.2059 2.25 18.359 2.25 16.999V8.99902C2.25 6.58102 3.582 5.24902 6 5.24902H7.45996L7.94897 3.79102C8.24597 2.87202 9.10308 2.24902 10.0801 2.24902H13.9199C14.8969 2.24902 15.754 2.8721 16.054 3.7981L16.54 5.24902H17.689L20.469 2.46899C20.762 2.17599 21.237 2.17599 21.53 2.46899C21.823 2.76199 21.823 3.23703 21.53 3.53003L3.53003 21.53ZM4.25 18.689L8.53003 14.4089C8.34903 13.9659 8.25 13.489 8.25 13C8.25 10.932 9.933 9.25 12 9.25C12.49 9.25 12.9659 9.34903 13.4089 9.53003L16.189 6.75H16C15.678 6.75 15.3921 6.54404 15.2891 6.23804L14.6289 4.26807C14.5269 3.95507 14.2439 3.75 13.9199 3.75H10.0801C9.75608 3.75 9.47302 3.95501 9.37402 4.26001L8.71094 6.23804C8.60794 6.54404 8.322 6.75 8 6.75H6C4.423 6.75 3.75 7.423 3.75 9V17C3.75 17.912 3.981 18.401 4.25 18.689ZM12.167 10.7729C12.111 10.7689 12.057 10.75 12 10.75C10.76 10.75 9.75 11.759 9.75 13C9.75 13.057 9.76895 13.11 9.77295 13.167L12.167 10.7729Z" fill="currentColor"/>
</svg>

<svg xmlns="http://www.w3.org/2000/svg" width="24" height="24" fill="none"><path fill="currentColor" d="M21.341 6.995c.271.543.409 1.218.409 2.005v8c0 2.418-1.332 3.75-3.75 3.75H8a.75.75 0 0 1 0-1.5h10c1.577 0 2.25-.673 2.25-2.25V9c0-.552-.084-1.001-.251-1.335a.749.749 0 1 1 1.342-.67ZM14.25 13c0 1.241-1.01 2.25-2.25 2.25a.75.75 0 0 0 0 1.5A3.755 3.755 0 0 0 15.75 13a.75.75 0 0 0-1.5 0ZM3.53 21.53a.748.748 0 0 1-1.06 0 .75.75 0 0 1 0-1.061l.725-.725c-.519-.538-.945-1.385-.945-2.745v-8c0-2.418 1.332-3.75 3.75-3.75h1.46l.489-1.458a2.232 2.232 0 0 1 2.131-1.542h3.84c.977 0 1.834.623 2.134 1.55l.486 1.45h1.149l2.78-2.78A.75.75 0 1 1 21.53 3.53l-18 18Zm.72-2.841 4.28-4.28A3.723 3.723 0 0 1 8.25 13 3.755 3.755 0 0 1 12 9.25c.49 0 .966.099 1.409.28l2.78-2.78H16a.75.75 0 0 1-.71-.512l-.661-1.97a.742.742 0 0 0-.71-.518H10.08a.738.738 0 0 0-.706.51l-.663 1.978A.75.75 0 0 1 8 6.75H6c-1.577 0-2.25.673-2.25 2.25v8c0 .912.231 1.401.5 1.689Zm7.917-7.916c-.056-.004-.11-.023-.167-.023A2.253 2.253 0 0 0 9.75 13c0 .057.019.11.023.167l2.394-2.394Z"/></svg>
